build/images/opensuse-regular-release-icon.svg

<?xml version="1.0" encoding="UTF-8" standalone="no"?>
<svg
   version="1.1"
   viewBox="0 0 45 58"
   id="svg1"
   sodipodi:docname="opensuse-regular-release-icon.svg"
   width="45"
   height="58"
   inkscape:export-filename="../git/landing-page/assets/images/opensuse-regular-release-icon.png"
   inkscape:export-xdpi="94.344826"
   inkscape:export-ydpi="94.344826"
   inkscape:version="1.3.2 (091e20ef0f, 2023-11-25)"
   xmlns:inkscape="http://www.inkscape.org/namespaces/inkscape"
   xmlns:sodipodi="http://sodipodi.sourceforge.net/DTD/sodipodi-0.dtd"
   xmlns="http://www.w3.org/2000/svg"
   xmlns:svg="http://www.w3.org/2000/svg">
  <defs
     id="defs1" />
  <sodipodi:namedview
     id="namedview1"
     pagecolor="#505050"
     bordercolor="#eeeeee"
     borderopacity="1"
     inkscape:showpageshadow="0"
     inkscape:pageopacity="0"
     inkscape:pagecheckerboard="0"
     inkscape:deskcolor="#d1d1d1"
     inkscape:zoom="3.8071755"
     inkscape:cx="43.99587"
     inkscape:cy="51.613066"
     inkscape:window-width="1920"
     inkscape:window-height="1131"
     inkscape:window-x="0"
     inkscape:window-y="0"
     inkscape:window-maximized="1"
     inkscape:current-layer="svg1" />
  <path
     d="M 22.81829,1.5691523 A 1.7710372,1.7710372 0 0 0 21.649299,2.0810439 L 2.1699635,21.560379 a 1.7710372,1.7710372 0 0 0 0,2.503978 L 21.649299,43.543689 a 1.7710372,1.7710372 0 0 0 2.503977,0 l 19.47933,-19.479332 a 1.7710372,1.7710372 0 0 0 0,-2.503978 L 24.153276,2.0810439 A 1.7710372,1.7710372 0 0 0 22.818198,1.5691523 Z M 22.901313,5.8371335 39.876661,22.812483 22.901311,39.787834 5.9259597,22.812483 Z M 1.651127,33.436394 v 1.770848 a 1.7708483,1.7708483 0 0 0 0.5188365,1.252036 L 21.649299,55.938616 a 1.7710372,1.7710372 0 0 0 2.503977,0 l 19.47933,-19.479338 a 1.7708483,1.7708483 0 0 0 0.518784,-1.252036 1.7708483,1.7708483 0 0 0 0,-0.08301 v -1.687823 h -1.770843 a 1.7708483,1.7708483 0 0 0 -1.252012,0.518803 L 22.901311,52.18244 4.6740863,33.955212 A 1.7708483,1.7708483 0 0 0 3.4220281,33.443321 v -0.0069 z"
     color="#000000"
     color-rendering="auto"
     dominant-baseline="auto"
     fill="#fbc75d"
     image-rendering="auto"
     shape-rendering="auto"
     solid-color="#000000"
     stop-color="#000000"
     style="font-variant-ligatures:normal;font-variant-position:normal;font-variant-caps:normal;font-variant-numeric:normal;font-variant-alternates:normal;font-variant-east-asian:normal;font-feature-settings:normal;font-variation-settings:normal;text-indent:0;text-decoration-line:none;text-decoration-style:solid;text-decoration-color:#000000;text-transform:none;text-orientation:mixed;white-space:normal;shape-padding:0;shape-margin:0;inline-size:0;isolation:auto;mix-blend-mode:normal;fill:#ffffff;stroke-width:0.236113"
     id="path1"
     inkscape:export-filename="../git/landing-page/assets/images/opensuse-regular-release-icon.png"
     inkscape:export-xdpi="23.538176"
     inkscape:export-ydpi="23.538176" />
</svg>

<svg width="45" height="58" xmlns="http://www.w3.org/2000/svg"><path d="M22.818 1.57a1.771 1.771 0 00-1.169.511L2.17 21.561a1.771 1.771 0 000 2.503l19.48 19.48a1.771 1.771 0 002.503 0l19.48-19.48a1.771 1.771 0 000-2.504L24.153 2.081a1.771 1.771 0 00-1.335-.512zm.083 4.267l16.976 16.975L22.9 39.788 5.926 22.812zm-21.25 27.6v1.77a1.77 1.77 0 00.519 1.252l19.48 19.48a1.771 1.771 0 002.503 0l19.48-19.48a1.77 1.77 0 00.518-1.252 1.77 1.77 0 000-.083v-1.688h-1.77a1.77 1.77 0 00-1.252.52L22.9 52.181 4.674 33.955a1.77 1.77 0 00-1.252-.512v-.007z" color="#000" fill="#fff" style="font-variant-ligatures:normal;font-variant-position:normal;font-variant-caps:normal;font-variant-numeric:normal;font-variant-alternates:normal;font-variant-east-asian:normal;font-feature-settings:normal;font-variation-settings:normal;text-indent:0;text-decoration-line:none;text-decoration-style:solid;text-decoration-color:#000;text-transform:none;text-orientation:mixed;white-space:normal;shape-padding:0;shape-margin:0;inline-size:0;isolation:auto;mix-blend-mode:normal"/></svg>
